app/assets/images/templates/content_feed.svg

<?xml version="1.0" encoding="UTF-8" standalone="no"?>
<svg
   xmlns:dc="http://purl.org/dc/elements/1.1/"
   xmlns:cc="http://creativecommons.org/ns#"
   xmlns:rdf="http://www.w3.org/1999/02/22-rdf-syntax-ns#"
   xmlns:svg="http://www.w3.org/2000/svg"
   xmlns="http://www.w3.org/2000/svg"
   id="svg4"
   version="1.1"
   viewBox="0 0 120 120"
   height="120"
   width="120">
  <metadata
     id="metadata10">
    <rdf:RDF>
      <cc:Work
         rdf:about="">
        <dc:format>image/svg+xml</dc:format>
        <dc:type
           rdf:resource="http://purl.org/dc/dcmitype/StillImage" />
        <dc:title></dc:title>
      </cc:Work>
    </rdf:RDF>
  </metadata>
  <defs
     id="defs8" />
  <path
     style="stroke-width:0.9999998808"
     id="path2"
     d="m 37.2727272727273,96.36363636363661 q 0,5.68181818181819 -3.97727272727271,9.65909090909098 Q 29.31818181818196,110 23.63636363636368,110 17.95454545454564,110 13.97727272727277,106.0227272727276 10,102.045454545455 10,96.36363636363661 q 0,-5.68181818181824 3.97727272727277,-9.6590909090913 3.97727272727274,-3.97727272727238 9.65909090909091,-3.97727272727238 5.68181818181826,0 9.65909090909103,3.97727272727238 3.97727272727272,3.97727272727306 3.97727272727259,9.6590909090913 z m 36.36363636363645,8.73579545454548 q 0.14204545454541,1.9886363636361 -1.20738636363643,3.4090909090906 Q 71.15056818181827,110 69.09090909090912,110 h -9.58806818181788 q -1.77556818181823,0 -3.05397727272738,-1.1718749999998 -1.27840909090897,-1.171875 -1.42045454545456,-2.947443181818 Q 53.46590909090928,89.61647727272715 41.92471590909099,78.07528409090916 30.38352272727288,66.534090909091 14.11931818181822,64.97159090909103 12.3437500000001,64.82954545454539 11.171875,63.55113636363648 10,62.27272727272735 10,60.49715909090891 v -9.58806818181804 q 0,-2.05965909090927 1.49147727272718,-3.33806818181808 1.20738636363634,-1.20738636363626 3.0539772727273,-1.20738636363626 h 0.35511363636366 q 11.36363636363633,0.92329545454507 21.73295454545458,5.71732954545451 10.36931818181818,4.79403409090883 18.39488636363633,12.89062499999999 8.09659090909114,8.0255681818182 12.89062500000004,18.3948863636364 4.79403409090915,10.36931818181822 5.71732954545466,21.73295454545466 z M 110,105.2414772727277 q 0.1420454545456,1.9176136363635 -1.278409090909,3.338068181818 Q 107.4431818181819,110 105.4545454545457,110 H 95.29829545454538 q -1.84659090909081,0 -3.16051136363626,-1.2428977272722 -1.31392045454541,-1.242897727273 -1.38494318181804,-3.0184659090911 Q 89.90056818181827,90.46875000000024 83.57954545454562,76.72585227272743 77.25852272727273,62.98295454545478 67.13778409090929,52.86221590909115 57.01704545454568,42.74147727272733 43.27414772727284,36.42045454545441 29.53125000000011,30.09943181818191 14.26136363636365,29.17613636363613 q -1.77556818181799,-0.0710227272724 -3.01846590909082,-1.38494318181821 -1.2428977272727,-1.31392045454507 -1.2428977272727,-3.0894886363635 V 14.54545454545429 q 0,-1.98863636363607 1.42045454545456,-3.2670454545452 Q 12.69886363636376,10 14.54545454545459,10 h 0.21306818181822 q 18.60795454545462,0.92329545454523 35.61789772727272,8.52272727272736 17.00994318181826,7.59943181818155 30.22017045454554,20.88068181818147 Q 93.8778409090911,52.61363636363656 101.477272727273,69.62357954545466 109.0767045454549,86.63352272727242 110,105.2414772727277 Z" />
</svg>

<svg xmlns="http://www.w3.org/2000/svg" viewBox="0 0 120 120" height="120" width="120"><path d="M37.273 96.364q0 5.681-3.978 9.659Q29.318 110 23.636 110q-5.681 0-9.659-3.977Q10 102.045 10 96.363q0-5.681 3.977-9.658 3.978-3.978 9.66-3.978 5.681 0 9.658 3.978 3.978 3.977 3.978 9.659zm36.363 8.735q.142 1.99-1.207 3.41Q71.151 110 69.091 110h-9.588q-1.776 0-3.054-1.172-1.279-1.172-1.42-2.947-1.563-16.265-13.104-27.806-11.541-11.54-27.806-13.103-1.775-.142-2.947-1.42Q10 62.271 10 60.496V50.91q0-2.06 1.491-3.338 1.208-1.207 3.054-1.207h.356q11.363.923 21.733 5.717 10.369 4.794 18.394 12.89 8.097 8.026 12.891 18.395 4.794 10.37 5.717 21.733zm36.364.142q.142 1.918-1.278 3.339-1.279 1.42-3.267 1.42H95.298q-1.846 0-3.16-1.243t-1.385-3.018q-.852-15.27-7.173-29.013-6.321-13.743-16.442-23.864-10.121-10.12-23.864-16.442-13.743-6.32-29.013-7.244-1.775-.07-3.018-1.385Q10 26.477 10 24.701V14.546q0-1.988 1.42-3.267Q12.7 10 14.545 10h.214q18.607.923 35.617 8.523 17.01 7.6 30.22 20.88 13.282 13.21 20.881 30.22 7.6 17.01 8.523 35.618z"/></svg>
